!!!COM: Palestrina, Giovanni Perluigi da
!!!OPR: Missa O sacrum convivium
!!!OTL: Agnus I
**kern	**kern	**kern	**kern	**kern
*Ibass	*Itenor	*Itenor	*Icalto	*Icant
!Bassus	!Tenor 2	!Tenor 1	!Altus	!Cantus
*clefF4	*clefGv2	*clefGv2	*clefG2	*clefG2
*k[b-]	*k[b-]	*k[b-]	*k[b-]	*k[b-]
*F:ion	*F:ion	*F:ion	*F:ion	*F:ion
*M4/2	*M4/2	*M4/2	*M4/2	*M4/2
=1	=1	=1	=1	=1
0r	0F	0c	0f	0r
=2	=2	=2	=2	=2
0r	1B-	1d	0f	0r
.	1A	1c	.	.
=3	=3	=3	=3	=3
0r	1.B-	2.d	0f	0r
.	.	4c	.	.
.	.	4d	.	.
.	.	4e	.	.
.	2A	[2f	.	.
=4	=4	=4	=4	=4
0C	1G	2f]	0g	0cc
.	.	4e	.	.
.	.	4d	.	.
.	[1c	1e	.	.
=5	=5	=5	=5	=5
1F	1c]	2f	1a	0cc
.	.	4c	.	.
.	.	4d	.	.
1E	2r	4e	1g	.
.	.	4f	.	.
.	2G	2g	.	.
=6	=6	=6	=6	=6
1.F	2.A	0c	2f	0cc
.	.	.	1a	.
.	4G	.	.	.
.	4A	.	.	.
.	4B-	.	.	.
2E	[2c	.	2g	.
=7	=7	=7	=7	=7
0D	2c]	0f	1a	0dd
.	4B	.	.	.
.	4A	.	.	.
.	1B	.	1d	.
=8	=8	=8	=8	=8
1C	1c	2e	1g	0ee
.	.	1g	.	.
2r	1c	.	[1e	.
[2c	.	2a	.	.
=9	=9	=9	=9	=9
2c]	0r	2g	2e]	0r
2d	.	2f	2f	.
2c	.	2e	2g	.
2A	.	[2f	2a	.
=10	=10	=10	=10	=10
1.c	0r	2f]	1g	2r
.	.	4e	.	1cc
.	.	4d	.	.
.	.	2e	1g	.
2B	.	2d	.	2dd
=11	=11	=11	=11	=11
2c	1r	2e	2.a	2cc
2d	.	1f	.	2a
.	.	.	8g	.
.	.	.	8f	.
2.c	2r	.	1g	[1cc
.	[2c	2e	.	.
4B-	.	.	.	.
=12	=12	=12	=12	=12
2A	2c]	0f	1f	2cc]
2B-	2d	.	.	2b-
1F	2c	.	1r	1a
.	2A	.	.	.
=13	=13	=13	=13	=13
0r	2.c	1e	2r	2g
.	.	.	1g	2cc
.	4d	.	.	.
.	2e	1r	.	2cc
.	2f	.	2a	[2dd
=14	=14	=14	=14	=14
1r	2e	0r	2g	4dd]
.	.	.	.	4cc
.	2c	.	2e	1cc
[1G	1d	.	[1g	.
.	.	.	.	4b
.	.	.	.	4a
=15	=15	=15	=15	=15
2G]	1r	2r	2g]	2b
2A	.	1c	2e	2cc
2F	2r	.	2.f	1a
2D	[2f	2d	.	.
.	.	.	4g	.
=16	=16	=16	=16	=16
1.F	2f]	2c	1.a	2r
.	2.c	2A	.	1ff
.	.	[1c	.	.
.	4d	.	.	.
2E	2e	.	2g	2gg
=17	=17	=17	=17	=17
2F	2.d	2c]	2r	2ff
2G	.	2B-	2g	2dd
.	8c	.	.	.
.	8B-	.	.	.
2.F	4A	1c	1a	[1ff
.	4B-	.	.	.
.	[2c	.	.	.
4E	.	.	.	.
=18	=18	=18	=18	=18
1D	2c]	1d	2f	2ff]
.	2B	.	2d	2ff
1C	2c	2G	2.e	4ee
.	.	.	.	4dd
.	[2g	[2c	.	4cc
.	.	.	4d	4b
=19	=19	=19	=19	=19
0r	2g]	2c]	2e	2.cc
.	2a	2F	2f	.
.	.	.	.	4a
.	2g	2G	2d	2b
.	2e	2A	2c	[2cc
=20	=20	=20	=20	=20
1r	2.g	1G	1d	2cc]
.	.	.	.	2b
.	4f	.	.	.
2r	2e	2A	1c	2cc
[2c	2f	2F	.	2a
=21	=21	=21	=21	=21
2c]	1d	2G	1r	1g
2B	.	1g	.	.
2c	2e	.	2r	1r
2A	4d	2f	[2cc	.
.	4c	.	.	.
=22	=22	=22	=22	=22
1G	1d	1g	2cc]	1r
.	.	.	2b	.
[1F	1f	2a	2cc	2r
.	.	[2f	[2a	[2cc
=23	=23	=23	=23	=23
2F]	0r	4f]	2a]	2cc]
.	.	4e	.	.
2G	.	2d	1g	2b
1A	.	1c	.	2cc
.	.	.	2f#	2a
=24	=24	=24	=24	=24
2.G	2r	0d	1g	2.b-
.	1g	.	.	.
8F	.	.	.	4cc
8E	.	.	.	.
1D	.	.	2b-	4dd
.	.	.	.	4ee-
.	2f	.	2a	[2dd
=25	=25	=25	=25	=25
0r	2g	1r	2b-	2dd]
.	2e	.	2g	1cc
.	1d	2r	1f	.
.	.	[2f	.	2b
=26	=26	=26	=26	=26
1r	1c	2f]	1g	2.cc
.	.	2e	.	.
.	.	.	.	4b-
2r	1r	2f	1f	4a
.	.	.	.	4g
[2F	.	2d	.	[2a
=27	=27	=27	=27	=27
2F]	2r	2.c	1r	2a]
2E	1c	.	.	2g
.	.	4B-	.	.
2F	.	4A	2r	1f
.	.	4G	.	.
2D	2B	2F	2f	.
=28	=28	=28	=28	=28
2C	2c	2G	2e	0r
1BB-	1d	1B-	2f	.
.	.	.	2d	.
2C	[2c	4A	2e	.
.	.	4G	.	.
=29	=29	=29	=29	=29
1D	2c]	1F	2.f	2r
.	2B	.	.	1ff
.	.	.	4g	.
1C	2.c	1r	2a	.
.	.	.	2g	2ee
.	4B-	.	.	.
=30	=30	=30	=30	=30
2D	2A	2r	1f	2ff
2BB-	2B-	1f	.	1dd
1C	1G	.	2r	.
.	.	2e	2g	[2cc
=31	=31	=31	=31	=31
1r	2F	2f	2a	2cc]
.	2f	2d	2f	2b
2r	2e	2.c	2g	1cc
[2F	2f	.	2a	.
.	.	4B-	.	.
=32	=32	=32	=32	=32
2F]	2d	2A	2f	2r
2E	2.c	2G	1g	2cc
2F	.	2A	.	2cc
.	4A	.	.	.
2D	2B	2F	[2f	2dd
=33	=33	=33	=33	=33
0C	0c	0G	2f]	2g
.	.	.	4e	2.cc
.	.	.	4d	.
.	.	.	1e	.
.	.	.	.	4b-
.	.	.	.	2g
=34	=34	=34	=34	=34
0F	0c	0F	0f	0a
==	==	==	==	==
*-	*-	*-	*-	*-
!!!CDT: 1525/^1526/-1594/2/2
!!!OCY: Italia
!!!AGN: Mass (Parody)
!!!AST: renaissance, vocal
!!!ASW: Motet (Morales)
!!!PWK: Masses, Book 8
!!!RNB: Cadence finals: C
!!!YOR: Le Opere Complete, v. 24, p. 227
!!!YOO: Rome, Italy: Fratelli Scalera
!!!END: 1992//
!!!EED: John Miller
!!!YEC: Copyright 2000, John Miller
!!!YEN: United States of America
!!!YEM: Rights to all derivative electronic formats reserved.
!!!YEM: Refer to licensing agreement for further details.
!!!YEM: This file must be accompanied by the licensing agreement.
!!!YEM: A copy of the licensing agreement may be found at http://www.music-cog.ohio-state.edu/HumdrumDatabases/Palestrina/license.txt
!!!EMD: converted to Humdrum by Bret Aarden
